X: 77
M:2/4
L:1/16
K:D
v"_mf""1"FG|\
|:"_ff"va4 u(d3.f) | "^SEGUE"edef edB2 | "1"a4 (d3.f) |\
 edef ef.g2 |
"1"a4  (d3.f) | edef ed.B2 | vfffd ggge | fdc"4"e d2 :|


